X:425
T:Lady Jardine
R:Strathspey
B:The Athole Collection
M:C
L:1/8
K:F
f|:c>AF>A FA/B/ c>A|c<A F>A G>AB>d|c>AF>A F>Ac>A|B>dc>A G>AB>d:|
~c>df>g a>gf>c|d<fc>A G>AB>d|c<A f>g a>gfc|d/e/f e/f/g a>f ~fe/d/|
c>fa>c B>ge>B|A<f c>A G>AB>d|c>fe>g a>fe>g|~f>dc>A G>AB>d||

